src/shared/assets/svgs/btn_today.svg

<svg width="63" height="34" viewBox="0 0 63 34" fill="none" xmlns="http://www.w3.org/2000/svg">
<g id="btn_today">
<rect id="Rectangle 7520" width="63" height="34" rx="17"/>
<path id="&#236;&#152;&#164;&#235;&#138;&#152;" d="M23.6953 9.57031C27.1055 9.5791 29.6279 11.2754 29.6191 13.8594C29.6279 16.2412 27.5801 17.832 24.6621 18.1221V21.0312H30.9902V22.6309H16.4707V21.0312H22.7285V18.1221C19.8457 17.832 17.7979 16.2412 17.8066 13.8594C17.7979 11.2754 20.3115 9.5791 23.6953 9.57031ZM19.7227 13.8594C19.7139 15.5732 21.375 16.6016 23.6953 16.6016C26.0508 16.6016 27.7031 15.5732 27.7031 13.8594C27.7031 12.1982 26.0508 11.1436 23.6953 11.1523C21.375 11.1436 19.7139 12.1982 19.7227 13.8594ZM44.8594 12.1016V13.666H33.8906V8.88477H35.8066V12.1016H44.8594ZM32.0098 16.4434V14.8789H46.5293V16.4434H32.0098ZM33.7324 19.0625V17.5508H44.7539V21.6113H35.7188V22.8418H45.2812V24.3711H33.75V20.1875H42.8203V19.0625H33.7324Z" fill="white"/>
</g>
</svg>

<svg xmlns="http://www.w3.org/2000/svg" width="63" height="34" fill="none"><rect width="63" height="34" rx="17"/><path fill="#fff" d="M23.695 9.57c3.41.01 5.933 1.705 5.924 4.29.009 2.381-2.039 3.972-4.957 4.262v2.91h6.328v1.599H16.47v-1.6h6.259v-2.909c-2.883-.29-4.931-1.88-4.922-4.263-.01-2.584 2.505-4.28 5.888-4.289m-3.972 4.29c-.01 1.713 1.652 2.742 3.972 2.742 2.356 0 4.008-1.029 4.008-2.743 0-1.66-1.652-2.715-4.008-2.707-2.32-.008-3.981 1.046-3.972 2.707m25.136-1.758v1.564H33.891v-4.78h1.916v3.217zm-12.85 4.341V14.88h14.52v1.564zm1.723 2.62V17.55h11.022v4.06h-9.035v1.23h9.562v1.53H33.75v-4.183h9.07v-1.125z"/></svg>
